svg/play_protected_content.svg

<svg xmlns="http://www.w3.org/2000/svg" viewBox="0 0 24 24"><path d="M2 5v13h9v-2H4V7h13v4h2V5zm7 4v5l3.5-2.5zm12.04 2.67-4.95 4.95-2.13-2.12-1.41 1.41 3.54 3.54 6.36-6.36z"/></svg>

<?xml version="1.0" encoding="UTF-8"?><!DOCTYPE svg PUBLIC "-//W3C//DTD SVG 1.1//EN" "http://www.w3.org/Graphics/SVG/1.1/DTD/svg11.dtd"><svg xmlns="http://www.w3.org/2000/svg" xmlns:xlink="http://www.w3.org/1999/xlink" version="1.1" id="mdi-play-protected-content" width="24" height="24" viewBox="0 0 24 24"><path d="M2,5V18H11V16H4V7H17V11H19V5H2M9,9V14L12.5,11.5L9,9M21.04,11.67L16.09,16.62L13.96,14.5L12.55,15.91L16.09,19.45L22.45,13.09L21.04,11.67Z" /></svg>
